X: 661
M: C
L: 1/8
K: F
V: 1
|:\
|: a>gfa c/c/c ac | defa g/g/g g2 |
a>gfa c/c/c ac | d>fe>g f/f/f f2 |\
a>gfa c/c/c ac | defa g/g/g g2 |\
afge fcdB | cABG F/F/F F2 |]
V: 2 clef=bass middle=d
|: |\
f2f2 f2f2 | f2f2 g2g2 |\
f2f2 f2f2 | c2c2 F2F2 :|\
|:\
f2f2 f2f2 | f2f2 g2g2 |
f2f2 f2f2 | c2c2 F2F2 |\
f2f2 f2f2 | f2f2 g2g2 |\
f2g2 a2b2 | c'2c2 f2f2 |]

